logos/yarnpkg.svg

<svg xmlns="http://www.w3.org/2000/svg" width="40" height="40" viewBox="0 0 40 40">
  <g fill="none" fill-rule="evenodd">
    <path fill="#FFFFFF" fill-rule="nonzero" d="M20.2438139,0.00078937799 C14.6586287,-0.0455069183 9.88270277,1.94523382 5.87529536,5.81190049 C2.08640647,9.69153012 0.0567768424,14.330419 0.00122128689,19.7637523 C-0.0561861205,25.3507894 1.91048055,30.1730116 5.85492499,34.1230116 C9.72899906,38.0044931 14.4715917,39.9137523 19.8327028,39.9989375 C25.4623324,39.9378264 30.1827028,37.9822709 34.1271472,34.1452338 C37.941962,30.2285672 39.9623324,25.543382 39.9827028,20.0711597 C40.0271472,8.86560419 30.9845546,0.0896782669 20.2438139,0.00078937799 Z M32.4438139,26.3896783 C32.4252954,26.7619005 32.1641842,27.080419 31.7789991,27.1896783 C31.5956657,27.2415301 31.4086287,27.2841227 31.2234435,27.3341227 C30.4086287,27.5489375 29.6697398,27.930419 28.9623324,28.3767153 C28.3308509,28.7748635 27.704925,29.1822709 27.0401102,29.5267153 C25.9289991,30.1007894 24.7827028,30.5822709 23.5882583,30.9526412 C23.4567768,30.993382 23.3401102,31.0489375 23.2382583,31.1489375 C23.0715917,31.3119005 22.8567768,31.3970857 22.6364065,31.4600486 C22.2901102,31.5581968 21.9345546,31.5952338 21.5789991,31.6415301 C20.9734435,31.7193079 20.3641842,31.7637523 19.7567768,31.817456 C19.3215917,31.8563449 18.8827028,31.8748635 18.4456657,31.9026412 C17.9789991,31.9341227 17.5104805,31.9748635 17.041962,31.9767153 C16.8067768,31.9767153 16.5734435,31.980419 16.3401102,31.9415301 C16.1993694,31.917456 16.0623324,31.8841227 15.9252954,31.8470857 C14.9475176,31.5896783 14.904925,30.4396783 15.4271472,29.9193079 C15.541962,29.8044931 15.6641842,29.7044931 15.7993694,29.617456 C15.9141842,29.543382 15.917888,29.5211597 15.8141842,29.4489375 C15.6252954,29.317456 15.4567768,29.1656042 15.3252954,28.9748635 C15.3012213,28.9396783 15.2752954,28.893382 15.2289991,28.8989375 C15.1697398,28.9063449 15.1623324,28.967456 15.1493694,29.0137523 C15.1086287,29.1619005 15.067888,29.3119005 15.0327028,29.4619005 C14.9512213,29.8100486 14.8586287,30.1563449 14.7215917,30.4878264 C14.491962,31.0452338 14.0771472,31.3581968 13.4864065,31.4544931 C12.9252954,31.5470857 12.3938139,31.4359746 11.8734435,31.243382 C11.7401102,31.193382 11.6086287,31.1396783 11.4864065,31.0656042 C11.2123324,30.9007894 11.1030731,30.6563449 11.1623324,30.3452338 C11.1975176,30.1544931 11.2734435,29.980419 11.3752954,29.8156042 C11.417888,29.7489375 11.4604805,29.6822709 11.5271472,29.5767153 C11.1141842,29.667456 10.8771472,29.4748635 10.6956657,29.180419 C10.3975176,28.6915301 10.2382583,28.1563449 10.1734435,27.593382 C10.1401102,27.2989375 10.1252954,27.0063449 10.1567768,26.7081968 C10.1993694,26.3063449 10.3401102,25.9415301 10.5364065,25.5952338 C10.7938139,25.1415301 11.1252954,24.7415301 11.4975176,24.3785672 C11.6160361,24.2637523 11.654925,24.1526412 11.6327028,23.9859746 C11.5956657,23.7044931 11.604925,23.4193079 11.6234435,23.1359746 C11.6623324,22.5378264 11.7512213,21.9470857 11.904925,21.3656042 C12.1623324,20.3970857 12.641962,19.5544931 13.3067768,18.8100486 C13.7567768,18.3063449 14.2530731,17.8563449 14.7808509,17.4378264 C14.9067768,17.3378264 14.9104805,17.3341227 14.8086287,17.2044931 C14.5086287,16.817456 14.2475176,16.4081968 14.0530731,15.9581968 C13.8401102,15.4711597 13.7141842,14.967456 13.7586287,14.430419 C13.7715917,14.2822709 13.7938139,14.1359746 13.8364065,13.993382 C13.9252954,13.7044931 14.0456657,13.4267153 14.1752954,13.1526412 C14.2845546,12.9193079 14.4456657,12.7526412 14.7030731,12.6693079 C15.0456657,12.5581968 15.3604805,12.3896783 15.6438139,12.1619005 C15.754925,12.0730116 15.8512213,11.9693079 15.9512213,11.867456 C16.6327028,11.1656042 17.4604805,10.7489375 18.417888,10.5748635 C18.741962,10.5156042 19.067888,10.5156042 19.3956657,10.5193079 C19.5938139,10.5211597 19.5938139,10.5211597 19.6623324,10.3396783 C19.8752954,9.78597456 20.1012213,9.23967827 20.4197398,8.73412271 C20.5327028,8.55634493 20.6586287,8.38967827 20.8086287,8.24153012 C20.8975176,8.15449308 20.9975176,8.08412271 21.1160361,8.04153012 C21.3141842,7.9693079 21.4771472,8.01004864 21.617888,8.1693079 C21.7401102,8.31004864 21.8271472,8.47486345 21.9160361,8.63597456 C22.2104805,9.17115975 22.4715917,9.7230116 22.7252954,10.280419 C22.7271472,10.2859746 22.7308509,10.2915301 22.7327028,10.2970857 C22.8438139,10.5415301 22.8438139,10.5415301 23.0789991,10.4211597 C23.2493694,10.3341227 23.4197398,10.2470857 23.5993694,10.180419 L24.1438139,10.3100486 C24.3567768,10.767456 24.4660361,11.2544931 24.5475176,11.7489375 C24.6567768,12.4137523 24.7030731,13.0841227 24.6901102,13.7581968 C24.6623324,15.0248635 24.4104805,16.2415301 23.8901102,17.4026412 C23.5530731,18.1563449 23.1104805,18.8452338 22.641962,19.5211597 C22.5438139,19.6637523 22.4493694,19.8081968 22.3530731,19.9507894 C22.2956657,20.0359746 22.3030731,20.1119005 22.3771472,20.1822709 C22.4438139,20.2470857 22.5067768,20.3137523 22.5771472,20.3748635 C23.1512213,20.8748635 23.6123324,21.4637523 23.9808509,22.1285672 C24.4086287,22.9007894 24.7215917,23.717456 24.8567768,24.593382 C24.9364065,25.1063449 24.9715917,25.6193079 24.9327028,26.1415301 C24.8975176,26.6285672 24.8234435,27.1100486 24.7586287,27.5915301 C24.7530731,27.6341227 24.7438139,27.6767153 24.7456657,27.7193079 C24.7493694,27.7970857 24.7901102,27.8470857 24.8715917,27.8507894 C24.9641842,27.8563449 25.0567768,27.8489375 25.1475176,27.8322709 C25.8160361,27.7081968 26.4308509,27.4359746 27.0271472,27.1211597 C27.5512213,26.8452338 28.0401102,26.5063449 28.5604805,26.2230116 C29.1327028,25.9119005 29.7197398,25.643382 30.354925,25.493382 C30.6975176,25.4137523 31.0456657,25.3619005 31.3993694,25.3693079 C31.5567768,25.3730116 31.7067768,25.4007894 31.8512213,25.4563449 C32.2530731,25.6100486 32.4641842,25.9470857 32.4438139,26.3896783 Z"/>
    <rect width="40" height="40"/>
  </g>
</svg>

<svg xmlns="http://www.w3.org/2000/svg" width="40" height="40"><g fill="none" fill-rule="evenodd"><path fill="#FFF" fill-rule="nonzero" d="M20.244 0C14.659-.045 9.883 1.946 5.875 5.813 2.086 9.692.057 14.33.001 19.764c-.057 5.587 1.91 10.409 5.854 14.359 3.874 3.881 8.617 5.79 13.978 5.876 5.63-.061 10.35-2.017 14.294-5.854 3.815-3.916 5.835-8.602 5.856-14.074C40.027 8.866 30.985.09 20.243.001zm12.2 26.39c-.019.372-.28.69-.665.8-.183.052-.37.094-.556.144-.814.215-1.553.596-2.26 1.043-.632.398-1.258.805-1.923 1.15a21.167 21.167 0 0 1-3.452 1.426.823.823 0 0 0-.35.196c-.166.163-.381.248-.602.311-.346.098-.701.135-1.057.182-.606.077-1.215.122-1.822.175-.435.04-.874.058-1.311.086-.467.031-.936.072-1.404.074-.235 0-.469.003-.702-.035a4.484 4.484 0 0 1-.415-.095c-.977-.257-1.02-1.407-.498-1.928.115-.115.237-.215.372-.302.115-.074.119-.096.015-.168a1.89 1.89 0 0 1-.489-.474c-.024-.035-.05-.082-.096-.076-.06.007-.067.068-.08.115-.04.148-.081.298-.116.448a6.616 6.616 0 0 1-.311 1.026c-.23.557-.645.87-1.236.966-.56.093-1.092-.018-1.613-.21a2.286 2.286 0 0 1-.387-.178c-.274-.165-.383-.41-.324-.72a1.53 1.53 0 0 1 .213-.53l.152-.24c-.413.091-.65-.101-.831-.396a3.847 3.847 0 0 1-.523-1.587 4.04 4.04 0 0 1-.016-.885c.042-.402.183-.766.38-1.113.257-.453.588-.853.96-1.216a.411.411 0 0 0 .136-.393 4.345 4.345 0 0 1-.01-.85 9.255 9.255 0 0 1 .282-1.77c.257-.969.737-1.812 1.402-2.556.45-.504.946-.954 1.474-1.372.126-.1.13-.104.028-.234a5.784 5.784 0 0 1-.756-1.246c-.213-.487-.339-.99-.294-1.528.013-.148.035-.294.077-.437a6.33 6.33 0 0 1 .34-.84.85.85 0 0 1 .527-.484c.343-.11.657-.28.94-.507.112-.089.208-.193.308-.295.682-.701 1.51-1.118 2.467-1.292.324-.06.65-.06.978-.056.198.002.198.002.266-.18.213-.553.44-1.1.758-1.605.113-.178.239-.344.389-.492a.85.85 0 0 1 .307-.2.42.42 0 0 1 .502.127c.122.141.21.306.298.467.294.535.556 1.087.81 1.644.001.006.005.012.007.017.11.245.11.245.346.124.17-.087.34-.174.52-.24l.545.129c.213.457.322.944.404 1.439.109.665.155 1.335.142 2.01a9.306 9.306 0 0 1-.8 3.644c-.337.753-.78 1.442-1.248 2.118-.098.143-.193.287-.289.43-.057.085-.05.16.024.231.067.065.13.132.2.193a6.433 6.433 0 0 1 1.404 1.754c.428.772.74 1.588.876 2.464a6.74 6.74 0 0 1 .076 1.549c-.035.487-.11.968-.174 1.45-.006.042-.015.085-.013.127.003.078.044.128.126.132.092.005.185-.002.276-.019.668-.124 1.283-.396 1.88-.71.523-.277 1.012-.616 1.532-.899.573-.311 1.16-.58 1.795-.73a4.22 4.22 0 0 1 1.044-.124c.158.004.308.032.452.087.402.154.613.491.593.934z"/><path d="M0 0h40v40H0z"/></g></svg>
